resources/ic_scan.svg

<svg width="24" height="24" viewBox="0 0 24 24" fill="none" xmlns="http://www.w3.org/2000/svg">
<path d="M14.2879 3C13.7356 3 13.2879 3.44772 13.2879 4C13.2879 4.55228 13.7356 5 14.2879 5V3ZM19 8.57299C19 9.12527 19.4477 9.57299 20 9.57299C20.5523 9.57299 21 9.12527 21 8.57299H19ZM21 15.4369C21 14.8846 20.5523 14.4369 20 14.4369C19.4477 14.4369 19 14.8846 19 15.4369H21ZM14.2921 19C13.7398 19 13.2921 19.4477 13.2921 20C13.2921 20.5523 13.7398 21 14.2921 21V19ZM9.71204 21C10.2643 21 10.712 20.5523 10.712 20C10.712 19.4477 10.2643 19 9.71204 19V21ZM5 15.4352C5 14.8829 4.55228 14.4352 4 14.4352C3.44772 14.4352 3 14.8829 3 15.4352H5ZM3 8.57576C3 9.12805 3.44772 9.57576 4 9.57576C4.55228 9.57576 5 9.12805 5 8.57576H3ZM9.70929 5C10.2616 5 10.7093 4.55228 10.7093 4C10.7093 3.44772 10.2616 3 9.70929 3V5ZM14.2879 5H18V3H14.2879V5ZM19 6V8.57299H21V6H19ZM18 5C18.5523 5 19 5.44772 19 6H21C21 4.34314 19.6569 3 18 3V5ZM19 15.4369V18H21V15.4369H19ZM18 19H14.2921V21H18V19ZM19 18C19 18.5523 18.5523 19 18 19V21C19.6569 21 21 19.6569 21 18H19ZM9.71204 19H6V21H9.71204V19ZM5 18V15.4352H3V18H5ZM6 19C5.44771 19 5 18.5523 5 18H3C3 19.6569 4.34314 21 6 21V19ZM5 8.57576V6H3V8.57576H5ZM6 5H9.70929V3H6V5ZM5 6C5 5.44772 5.44772 5 6 5V3C4.34315 3 3 4.34315 3 6H5Z" fill="#BCBEC3"/>
<rect x="3" y="11" width="18" height="2" rx="1" fill="#BCBEC3"/>
</svg>

<svg width="24" height="24" fill="none" xmlns="http://www.w3.org/2000/svg"><path d="M14.288 3a1 1 0 1 0 0 2V3zM19 8.573a1 1 0 1 0 2 0h-2zm2 6.864a1 1 0 1 0-2 0h2zM14.292 19a1 1 0 1 0 0 2v-2zm-4.58 2a1 1 0 0 0 0-2v2zM5 15.435a1 1 0 1 0-2 0h2zm-2-6.86a1 1 0 1 0 2 0H3zM9.71 5a1 1 0 1 0 0-2v2zm4.578 0H18V3h-3.712v2zM19 6v2.573h2V6h-2zm-1-1a1 1 0 0 1 1 1h2a3 3 0 0 0-3-3v2zm1 10.437V18h2v-2.563h-2zM18 19h-3.708v2H18v-2zm1-1a1 1 0 0 1-1 1v2a3 3 0 0 0 3-3h-2zm-9.288 1H6v2h3.712v-2zM5 18v-2.565H3V18h2zm1 1a1 1 0 0 1-1-1H3a3 3 0 0 0 3 3v-2zM5 8.576V6H3v2.576h2zM6 5h3.71V3H6v2zM5 6a1 1 0 0 1 1-1V3a3 3 0 0 0-3 3h2z" fill="#BCBEC3"/><rect x="3" y="11" width="18" height="2" rx="1" fill="#BCBEC3"/></svg>
